icon-themes/sifr_svg/cmd/lc_verticaltextfittosizetool.svg

<svg viewBox="0 0 24 24" xmlns="http://www.w3.org/2000/svg"><path d="m2 21c0 .554.3794493 1 1 1h3v-2h-2v-5.5c0-.276142.2238576-.5.5-.5h9.5v-4h-9.5c-.2761424 0-.5 0-.5-.5v-5.5h2v-2h-3c-.554 0-1 .446-1 1zm10-4c0 .26529.09304.53057.28125.71875l4 4 .28125.28125h.875l.28125-.28125 4-4c.18814-.18817.28122-.45344.28125-.71875v-1h-1c-.2653 0-.53058.0931-.71875.28125l-2.28125 2.28125v-6.5625-6.5625l2.28125 2.28125c.18817.18815.45345.28125.71875.28125h1v-1c-.00003-.26531-.09311-.53058-.28125-.71875l-4-4-.28125-.28125h-.875l-.28125.28125-4 4c-.18821.18818-.28125.45346-.28125.71875v1h1c.26531.00004.53057-.09314.71875-.28125l2.28125-2.28125v6.5625 6.5625l-2.28125-2.28125c-.18818-.18811-.45344-.28129-.71875-.28125h-1z" fill="#555753"/></svg>

<svg xmlns="http://www.w3.org/2000/svg" viewBox="0 0 24 24">
  <path
     style="fill:#555753"
     d="m 2,21 c 0,0.554 0.3794493,1 1,1 H 6 V 20 H 4 V 14.5 C 4,14.223858 4.2238576,14 4.5,14 H 14 V 10 H 4.5 C 4.2238576,10 4,10 4,9.5 V 4 H 6 V 2 H 3 C 2.446,2 2,2.446 2,3 Z m 10,-4 c 0,0.26529 0.09304,0.53057 0.28125,0.71875 l 4,4 L 16.5625,22 h 0.875 l 0.28125,-0.28125 4,-4 C 21.90689,17.53058 21.99997,17.26531 22,17 v -1 h -1 c -0.2653,0 -0.53058,0.0931 -0.71875,0.28125 L 18,18.5625 V 12 5.4375 l 2.28125,2.28125 C 20.46942,7.9069 20.7347,8 21,8 h 1 V 7 c -3e-5,-0.26531 -0.09311,-0.53058 -0.28125,-0.71875 l -4,-4 L 17.4375,2 h -0.875 l -0.28125,0.28125 -4,4 C 12.09304,6.46943 12,6.73471 12,7 v 1 h 1 c 0.26531,4e-5 0.53057,-0.09314 0.71875,-0.28125 L 16,5.4375 V 12 18.5625 L 13.71875,16.28125 C 13.53057,16.09314 13.26531,15.99996 13,16 h -1 z"
     />
</svg>
